X: 5673
T: Bye A While
R: jig
M: 6/8
K: Amajor
|:ed|c2e fec|ecA BAF|EFA cea|~f3 ecB|
Ace fec|ecA BAF|def ecA|BAG A:|
|:ce|c'2b bag|afe fec|def ecA|B3 BAF|
E2A FAE|Ace fec|def ecA|BAG A:|

